X:1
T: Mrs. Henry Lumsden of Tillwhilly's Strathspey
C:William Marshall
R:Strathspey
Q: 128
K:Bb
M:4/4
L:1/16
|:g2|BB3 d3c B4 B3F|G3B F3B dc3 c3g|BB3 d3c B4 B3d|cdcB AGFE DB,3 B,2g2|
BB3 d3c B4 B3F|G3B F3B dc3 c3g|BB3 d3c B4 B3d|cdcB AGFE DB,3 B,2B2|
DB,3 B,3G DB,3 B,3B|D2B,2 GFED E2C2 C2B2|D2B,2 D2F2 E2G2 F2B2|eg3 c3e dB3 B4|
DB,3 B,3G DB,3 B,3B|D2B,2 GFED E2C2 C2g2|f3e d3c B4 B3d|cdcB AGFE DB,3 B,2:|
